X:1
T:Gaudent in caelis
T:José de Torres y Martinez Bravo [1665-1738]
T:Magnificat antiphon at 2nd vespers for feasts of martyrs
T:Gaudent in caelis
T:Copyright © 
T:Copyright © 
C:José de Torres y Martinez Bravo [1665-1738]
Z:Magnificat antiphon at 2nd vespers
Z:for feasts of martyrs
Z:Copyright ©
%%score [ 1 2 ]
L:1/8
M:4/4
K:C
V:1 treble nm="[Soprano]" snm="S."
V:2 treble-8 transpose=-12 nm="[Tenor]" snm="T."
V:1
 G4 C2 c2 | BGAB c2 e2 | dBcd e2 c2 | B2 A2 ^G2 A2 | B2 c2 B4 | A4 z4 | z4 e4 | A2 d2 ^cdec | %8
w: Gau- dent in|cae- * * * lis, in|cae- * * * lis, in|cae- * * *||lis,|gau-|dent in cae- * * *|
 d4 A4 | D2 G2 ^FGAF | G2 F2 EFGE | F2 E2 DEFD | E2 G4 E2 | z2 G4 FE | D2 E2 ^F2 G2 | A2 B2 A4 | %16
w: lis, gau-|dent in cae- * * *|||lis, gau- dent,|gau- dent in|cae- lis, a- ni-|mae sanc- to-|
 G2 G2 B2 c B/c/ | ^G>G AG/A/ E2 FE/F/ | ^C2 D2 z A _BA/B/ | ^F>F G2 D2 E2 | ^FE G4 F2 | G4 z2 G2 | %22
w: rum, qui Chris- ti ves- *|ti- gi- a _ _ sunt se- * *|cu- ti, ves- ti- * *|* gi- a sunt se-|cu- * * *|ti, et|
 c2 c2 z2 A2 | d2 dc _B2 A2- | A2 GF G4 | A8 | z2 d3 d c2 | _B4 ^F2 F2 | %28
w: qui- a pro|e- ius a- mo- *||re|san- gui- nem|su- um fu-|
 G/^F/G/A/ _B/A/B/c/ d2 D2 | z2 G3 G F2 | E4 D4 | z2 c3 c _B2 | A4 E2 E2 | %33
w: de- * * * * * * * * runt,|san- gui- nem|su- um,|san- gui- nem|fu- um fu-|
 F/E/F/G/ A/G/A/B/ c3 _B | A>G F4 E2 | F2 A3 AGG | G2 ^F2 GD G2 | EEAG F G/A/ _BA | GA/B/ cB AGFE | %39
w: de- * * * * * * * * *||runt, i- de- o cum|Chris- * to, ex- sul-|tant, ex- sul- tant si- ne, _ si- *||
 DE/F/ GF E2 F2- | FD G3 E A2- | AG F3 EDE/F/ | GFED CD/E/ F2- | F2 E2 D4 | C16 |] %45
w: * * * * * ne, si-|* ne fi- * *||||ne.|
V:2
 z8 | G4 C2 c2 | BGAB c2 e2 | dBcd e2 c2 | B2 A2 e4 | A4 e4 | A2 d2 ^cdec | d4 A4 | D2 G2 ^FGAF | %9
w: |Gau- dent in|cae- * * * lis, in|cae- * * * lis, in|cae- * *|lis, gau-|dent in cae- * * *|lis, gau-|dent in cae- * * *|
 G2 _B2 ABcA | _B2 A2 GABG | AB c4 B2 | c2 e4 c2 | z2 e4 dc | B2 c2 c2 B2 | A2 G2 d4 | G4 z2 c2 | %17
w: lis, in cae- * * *|||lis, gau- dent,|gau- dent in|cae- lis, a- ni-|me sanc- to-|rum, qui|
 e2 f e/f/ ^c>c dc/d/ | A2 _BA/B/ ^F2 G2 | z d ed/e/ B>B c2 | d2 e2 d4 | G2 G2 c2 c2 | %22
w: Chris- ti ves- * ti- gi- a _ _|sunt se- * * cu- ti,|vest- ti- * * * gi- a|sunt se- cu-|ti, et qui- a|
 z2 A2 d2 dc | B2 A2 G2 F2 | _B8 | A2 d3 d c2 | _B4 ^F2 F2 | G/^F/G/A/ _B/A/B/c/ d2 D2 | %28
w: pro e- ius a-|mo- * * *||re san- gui- nem|su- sum fu-|de- * * * * * * * * runt,|
 z2 G3 G F2 | E4 D4 | z2 c3 c _B2 | A4 E2 E2 | F/E/F/G/ A/G/A/B/ c3 _B | A>G F4 E2 | %34
w: san- gui- nem|su- um,|san- gui- nem|su- um fu-|de- * * * * * * * * *||
 F/E/F/G/ A/G/A/B/ c2 C2 | F4 _B>A Bc | d4 G3 G | c2 AA dc _B c/d/ | _ed cd/e/ fedc | %39
w: |runt, i- de- o cum|Chris- to, ex-|sul- tant, ex- sul- tant si- ne _|fi- * * * * * * * *|
 _BA GA/B/ cB A2 | _B3 G c3 A | d3 c _B3 A | GA/B/ cB AGFE | D2 C2 G4 | C16 |] %45
w: * * * * * * * ne,|si- ne fi- *||||ne.|

